local/share/icons/dracula-icons-main/scalable/apps/pgadmin.svg

<?xml version="1.0" encoding="UTF-8"?>
<svg xmlns="http://www.w3.org/2000/svg" xmlns:xlink="http://www.w3.org/1999/xlink" width="64" height="64" viewBox="0 0 64 64">
<path fill-rule="nonzero" fill="rgb(94.901961%, 94.901961%, 94.901961%)" fill-opacity="1" d="M 32 5 C 46.910156 5 59 17.089844 59 32 C 59 46.910156 46.910156 59 32 59 C 17.089844 59 5 46.910156 5 32 C 5 17.089844 17.089844 5 32 5 Z M 32 5 "/>
<path fill-rule="nonzero" fill="rgb(20%, 40.392157%, 55.686275%)" fill-opacity="1" d="M 48.679688 36.1875 C 44.171875 37.078125 43.863281 35.605469 43.863281 35.605469 C 48.621094 28.8125 50.605469 20.179688 48.890625 18.066406 C 44.207031 12.308594 36.109375 15.03125 35.96875 15.105469 L 35.925781 15.109375 C 35.039062 14.9375 34.042969 14.828125 32.921875 14.8125 C 30.886719 14.78125 29.339844 15.328125 28.164062 16.1875 C 28.164062 16.1875 13.71875 10.449219 14.382812 23.398438 C 14.527344 26.152344 18.480469 44.246094 23.199219 38.789062 C 24.925781 36.792969 26.589844 35.105469 26.589844 35.105469 C 27.417969 35.636719 28.410156 35.90625 29.449219 35.808594 L 29.523438 35.742188 C 29.503906 35.992188 29.511719 36.234375 29.5625 36.523438 C 28.34375 37.832031 28.703125 38.058594 26.273438 38.546875 C 23.816406 39.035156 25.253906 39.902344 26.195312 40.132812 C 27.34375 40.40625 29.988281 40.796875 31.777344 38.390625 L 31.703125 38.664062 C 32.179688 39.035156 32.515625 41.050781 32.460938 42.890625 C 32.40625 44.726562 32.367188 45.980469 32.742188 46.964844 C 33.113281 47.949219 33.488281 50.164062 36.679688 49.503906 C 39.355469 48.957031 40.734375 47.527344 40.925781 45.144531 C 41.0625 43.449219 41.371094 43.699219 41.394531 42.183594 L 41.636719 41.46875 C 41.921875 39.167969 41.679688 38.425781 43.324219 38.777344 L 43.726562 38.8125 C 44.9375 38.863281 46.523438 38.621094 47.449219 38.203125 C 49.449219 37.3125 50.640625 35.816406 48.667969 36.207031 "/>
<path fill="none" stroke-width="0.141" stroke-linecap="round" stroke-linejoin="round" stroke="rgb(97.647059%, 97.647059%, 97.647059%)" stroke-opacity="1" stroke-miterlimit="4" d="M 6.769123 7.893355 C 6.743655 8.763236 6.776286 9.637892 6.863831 9.852776 C 6.952172 10.066068 7.142384 10.476734 7.792606 10.346212 C 8.335386 10.233995 8.535148 10.014336 8.620306 9.536817 C 8.683179 9.184249 8.804947 8.203742 8.820864 8.002389 " transform="matrix(4.908179, 0, 0, 4.908179, -1.2436, -1.242)"/>
<path fill="none" stroke-width="0.141" stroke-linecap="round" stroke-linejoin="round" stroke="rgb(97.647059%, 97.647059%, 97.647059%)" stroke-opacity="1" stroke-miterlimit="4" d="M 5.989971 3.529625 C 5.989971 3.529625 3.042881 2.370049 3.181362 5.008343 C 3.210809 5.568632 4.017021 9.255877 4.97763 8.140869 C 5.328607 7.733386 5.646157 7.411856 5.646157 7.411856 " transform="matrix(4.908179, 0, 0, 4.908179, -1.2436, -1.242)"/>
<path fill="none" stroke-width="0.141" stroke-linecap="round" stroke-linejoin="round" stroke="rgb(97.647059%, 97.647059%, 97.647059%)" stroke-opacity="1" stroke-miterlimit="4" d="M 7.580906 3.317925 C 7.475852 3.348963 9.218001 2.705108 10.208058 3.922782 C 10.559034 4.353346 10.153143 6.109025 9.185371 7.496218 " transform="matrix(4.908179, 0, 0, 4.908179, -1.2436, -1.242)"/>
<path fill="none" stroke-width="0.141" stroke-linecap="round" stroke-linejoin="bevel" stroke="rgb(97.647059%, 97.647059%, 97.647059%)" stroke-opacity="1" stroke-miterlimit="4" d="M 9.185371 7.497014 C 9.185371 7.497014 9.248244 7.797851 10.165081 7.614802 C 10.564605 7.536807 10.325846 7.840828 9.916771 8.023877 C 9.583303 8.174295 8.829619 8.209314 8.820068 8.003184 C 8.786642 7.468363 9.215613 7.630719 9.185371 7.497014 C 9.154332 7.377634 8.965712 7.259846 8.839965 6.966968 C 8.730135 6.709903 7.330208 4.736953 9.228347 5.029831 C 9.2952 5.016301 8.733319 3.289274 6.956151 3.262214 C 5.178984 3.234359 5.236286 5.368074 5.236286 5.368074 " transform="matrix(4.908179, 0, 0, 4.908179, -1.2436, -1.242)"/>
<path fill="none" stroke-width="0.141" stroke-linecap="round" stroke-linejoin="round" stroke="rgb(97.647059%, 97.647059%, 97.647059%)" stroke-opacity="1" stroke-miterlimit="4" d="M 6.271707 7.680063 C 6.024193 7.949066 6.098209 7.992042 5.602384 8.09073 C 5.100989 8.190213 5.397847 8.369282 5.589651 8.413851 C 5.822839 8.470357 6.36164 8.55074 6.726146 8.058099 C 6.836772 7.907681 6.725351 7.669717 6.574136 7.609231 C 6.499325 7.579784 6.402229 7.543174 6.274891 7.680063 M 6.274891 7.680063 " transform="matrix(4.908179, 0, 0, 4.908179, -1.2436, -1.242)"/>
<path fill="none" stroke-width="0.141" stroke-linecap="round" stroke-linejoin="round" stroke="rgb(97.647059%, 97.647059%, 97.647059%)" stroke-opacity="1" stroke-miterlimit="4" d="M 6.25579 7.675288 C 6.231118 7.516911 6.309113 7.33227 6.392679 7.114203 C 6.519221 6.787102 6.811304 6.459205 6.578115 5.421397 C 6.403821 4.64702 5.238674 5.259836 5.236286 5.365686 C 5.236286 5.473128 5.288813 5.897324 5.21639 6.397128 C 5.121682 7.044962 5.645361 7.59411 6.247035 7.537603 " transform="matrix(4.908179, 0, 0, 4.908179, -1.2436, -1.242)"/>
<path fill-rule="nonzero" fill="rgb(100%, 100%, 100%)" fill-opacity="1" stroke-width="0.141" stroke-linecap="butt" stroke-linejoin="miter" stroke="rgb(97.647059%, 97.647059%, 97.647059%)" stroke-opacity="1" stroke-miterlimit="4" d="M 5.978033 5.348177 C 5.970074 5.383991 6.043294 5.478699 6.140389 5.492229 C 6.235893 5.504963 6.316276 5.429356 6.322643 5.394338 C 6.32901 5.357728 6.25579 5.31873 6.160286 5.305996 C 6.063986 5.293263 5.982808 5.312363 5.978033 5.348177 " transform="matrix(4.908179, 0, 0, 4.908179, -1.2436, -1.242)"/>
<path fill-rule="nonzero" fill="rgb(100%, 100%, 100%)" fill-opacity="1" stroke-width="0.071" stroke-linecap="butt" stroke-linejoin="miter" stroke="rgb(97.647059%, 97.647059%, 97.647059%)" stroke-opacity="1" stroke-miterlimit="4" d="M 8.886921 5.274958 C 8.89488 5.310772 8.820864 5.406276 8.723769 5.419009 C 8.626673 5.429356 8.548678 5.353748 8.54072 5.321118 C 8.535148 5.285304 8.608368 5.246307 8.703872 5.232777 C 8.800172 5.220043 8.88135 5.239144 8.886125 5.274958 " transform="matrix(4.908179, 0, 0, 4.908179, -1.2436, -1.242)"/>
<path fill="none" stroke-width="0.141" stroke-linecap="round" stroke-linejoin="round" stroke="rgb(97.647059%, 97.647059%, 97.647059%)" stroke-opacity="1" stroke-miterlimit="4" d="M 9.228347 5.029831 C 9.241081 5.310772 9.163882 5.503371 9.15274 5.801821 C 9.140006 6.236363 9.367624 6.735371 9.02381 7.232787 " transform="matrix(4.908179, 0, 0, 4.908179, -1.2436, -1.242)"/>
</svg>

<svg width="64" height="64" version="1.1" viewBox="0 0 64 64" xmlns="http://www.w3.org/2000/svg">
 <g transform="translate(1,1)">
  <g opacity=".1"></g>
 </g>
 <path d="m32 5c14.912 0 27 12.088 27 27s-12.088 27-27 27-27-12.088-27-27 12.088-27 27-27z" fill="#f2f2f2" stroke-width="1.1739"/>
 <g transform="matrix(1.3852 0 0 1.3852 -1.2436 -1.242)">
  <path d="m36.04 27.02c-3.254 0.645-3.477-0.418-3.477-0.418 3.434-4.906 4.867-11.137 3.629-12.664-3.379-4.156-9.227-2.191-9.328-2.137l-0.031 4e-3c-0.641-0.125-1.359-0.203-2.168-0.215-1.469-0.023-2.586 0.371-3.434 0.992 0 0-10.43-4.141-9.949 5.207 0.102 1.988 2.957 15.05 6.363 11.11 1.246-1.441 2.449-2.66 2.449-2.66 0.598 0.383 1.313 0.578 2.063 0.508l0.055-0.047c-0.016 0.18-8e-3 0.355 0.027 0.563-0.879 0.945-0.621 1.109-2.375 1.461-1.773 0.352-0.734 0.98-0.055 1.145 0.828 0.199 2.738 0.48 4.03-1.258l-0.055 0.199c0.344 0.266 0.586 1.723 0.547 3.051-0.039 1.324-0.066 2.23 0.203 2.941 0.27 0.711 0.539 2.309 2.844 1.832 1.93-0.395 2.926-1.426 3.066-3.148 0.098-1.223 0.32-1.043 0.336-2.137l0.176-0.516c0.207-1.66 0.031-2.195 1.219-1.941l0.289 0.023c0.875 0.039 2.02-0.137 2.688-0.438 1.445-0.645 2.305-1.723 0.879-1.441" fill="#33678e"/>
  <path transform="scale(3.5433)" d="m6.769 7.893c-0.025 0.87 7e-3 1.745 0.095 1.96 0.088 0.213 0.278 0.624 0.929 0.493 0.542-0.112 0.742-0.332 0.827-0.809 0.063-0.353 0.185-1.333 0.201-1.535" fill="none" stroke="#f9f9f9" stroke-linecap="round" stroke-linejoin="round" stroke-width=".141"/>
  <path transform="scale(3.5433)" d="m5.99 3.53s-2.947-1.16-2.809 1.478c0.03 0.561 0.836 4.248 1.797 3.133 0.351-0.408 0.668-0.729 0.668-0.729" fill="none" stroke="#f9f9f9" stroke-linecap="round" stroke-linejoin="round" stroke-width=".141"/>
  <path transform="scale(3.5433)" d="m7.581 3.318c-0.105 0.031 1.637-0.613 2.627 0.605 0.351 0.43-0.055 2.186-1.023 3.573" fill="none" stroke="#f9f9f9" stroke-linecap="round" stroke-linejoin="round" stroke-width=".141"/>
  <path transform="scale(3.5433)" d="m9.185 7.497s0.063 0.301 0.98 0.118c0.4-0.078 0.161 0.226-0.248 0.409-0.334 0.15-1.087 0.185-1.097-0.021-0.033-0.535 0.396-0.372 0.365-0.506-0.031-0.119-0.219-0.237-0.345-0.53-0.11-0.257-1.51-2.23 0.388-1.937 0.067-0.014-0.495-1.741-2.272-1.768-1.777-0.028-1.72 2.106-1.72 2.106" fill="none" stroke="#f9f9f9" stroke-linecap="round" stroke-linejoin="bevel" stroke-width=".141"/>
  <path transform="scale(3.5433)" d="m6.272 7.68c-0.248 0.269-0.174 0.312-0.67 0.411-0.501 0.099-0.204 0.278-0.012 0.323 0.233 0.056 0.772 0.137 1.136-0.356 0.111-0.15-1e-3 -0.388-0.152-0.449-0.075-0.029-0.172-0.066-0.299 0.071m0 0" fill="none" stroke="#f9f9f9" stroke-linecap="round" stroke-linejoin="round" stroke-width=".141"/>
  <path transform="scale(3.5433)" d="m6.256 7.675c-0.025-0.158 0.053-0.343 0.137-0.561 0.126-0.327 0.418-0.655 0.185-1.693-0.174-0.774-1.339-0.161-1.342-0.055 0 0.107 0.053 0.531-0.02 1.031-0.094 0.648 0.429 1.197 1.031 1.141" fill="none" stroke="#f9f9f9" stroke-linecap="round" stroke-linejoin="round" stroke-width=".141"/>
  <path transform="scale(3.5433)" d="m5.978 5.348c-8e-3 0.036 0.065 0.131 0.162 0.144 0.096 0.013 0.176-0.063 0.183-0.098 6e-3 -0.036-0.067-0.075-0.163-0.088s-0.177 6e-3 -0.182 0.042" fill="#fff" stroke="#f9f9f9" stroke-width=".141"/>
  <path transform="scale(3.5433)" d="m8.887 5.275c8e-3 0.036-0.066 0.131-0.163 0.144-0.097 0.01-0.175-0.065-0.183-0.098-6e-3 -0.036 0.067-0.075 0.163-0.088s0.177 6e-3 0.182 0.042" fill="#fff" stroke="#f9f9f9" stroke-width=".071"/>
  <path transform="scale(3.5433)" d="m9.228 5.03c0.013 0.281-0.064 0.473-0.075 0.772-0.013 0.434 0.215 0.933-0.129 1.431" fill="none" stroke="#f9f9f9" stroke-linecap="round" stroke-linejoin="round" stroke-width=".141"/>
 </g>
</svg>
